X:1
T:Khvalitye imya Gospodie
T:П. И. Чаиковский, 1885
T:Unknown Source
T:Ныне силы небесныя
T:Девять духовно-музыкальных сочинений , No. 9
T:Public Domain
T:Public Domain
T:Public Domain
T:Public Domain
T:Public Domain
T:Public Domain
T:Public Domain
C:Sergei Rakhmanninov
Z:Public Domain
%%score [ ( 1 2 ) ( 3 4 ) ( 5 6 ) ( 7 8 ) ]
L:1/8
Q:1/4=40
M:3/4
K:G
V:1 treble nm="Дискант" snm="Д"
V:2 treble 
V:3 treble nm="Альт" snm="А"
V:4 treble 
V:5 treble-8 nm="Тенор" snm="Т"
V:6 treble-8 
V:7 bass nm="Бас" snm="Б"
V:8 bass 
V:1
"^Медленно\nSlow"!pp! d4 d2 |!<(! B2 dd d2-!<)! | d2 Bd ed |!mp! B2 d4 |!p!!<(! G6!<)! | %5
 cc!>(! B2 G2!>)! | c2 B2 AG |!<(! A4 A2!<)! | z6 | z6 | %10
!mf!"^Ны           –             не              си     –     лы               не       –      бе   –       сны   –  я""^Nyi           –             nye            ci     –      lyi                nye     –      be     –     snyi –   ya" (d2 eg) fe | %11
 d2 df ed | ^c2!<(! AB de!<)! | %13
"^с  нам     –        ы               слу         –        жат.                          Се      бо       вхо – дит  Царь          сла    –          –           вы,         Се            бо""^s  nam      –      yi               slu         –         zhat.                        Sye     bo     vkxo – dit    Tsar'           sla      –         –           vui,        Sye           bo"!>(! A4 G2!>)! | %14
!p! (G2 FE) A2- | !fermata!A6 ||!pp!!<(! d4 d2!<)! | B3 [Bd] [Bd]2- | [Bd]2 ((Bded | B2))!mp! d4 | %20
!p!!<(! G4 G2!<)! | %21
"^вхо–дит Царь _______    сла      –         –         –          –        вы,                                                                                             Се ____________  бо""^vkho–dit  Tsar' ________    sla       –         –         –          –        vyi,                                                                                            Sye ___________   bo" cc!>(! (B2 G2)!>)! | %22
 (c2 B2 AG | A4) A2 | z6 | z6 |!mf! (d2 eg) fe | %27
"^вхо –  дит            Царь       сла        –        вы,             Царь             сла            –           вы. ____________           Се жерт-ва   тай– на–я""^vkho– dit              Tsar'        sla         –        vyi,             Tsar'               sla            –            vyi. ___________           Sye zhert-va   tai –  na–ya" d2 df ed | %28
 (^c2 A!<(!B) de!<)! |!>(! A4 G2-!>)! |!p! G2 (FE F2- | !fermata!F6) ||!pp! d2!<(! d2 d2!<)! | %33
 B3 [Bd] [Bd]2- | %34
 [Bd]2"^со   –   вер  –  ше–на            до           ри – но–сит–ся,         до   ри – но          –           сит    –     ся.""^so   –  vyer  – she–na            do          ri  – no – sit – sya,        do  ri  –   no          –           sit      –     sya." Bd ed | %35
 B2!mp! d4 |!p!!<(! G4 G2!<)! | cc!>(! B2 GG!>)! | (c2 B2) AG | A6 | z6 | z6 | %42
!mf!"^Се          жерт  – ва            тай   –    на        –        я,                тай   –   на   –   я                  до                      ри –""^Sye        zhert  – va              tai    –    na        –        ya,              tai    –     na  –   ya               do                       ri  –" d2 eg fe | %43
 d2 df ed | ^c2!<(! AB de!<)! |!>(! A4 G2!>)! | %46
!p!"^–но      –     сит   –  ся. _______Ве   –   ро  – ю    и   лю–бо     –      ви – ю        при  –  сту-пим,   да      при–част-ни-цы  жи–зни""^–no      –      sit    –  sya. ______   Vye –   ro  – yu    i   lyu –bo     –      vi – yu         pri    –  stu–pim,    da      pri –chast-ni-tsyi  zhi–zni" G2 FE F2- | %47
 !fermata!F6 ||"^Moderately"!f![Q:1/4=80]"^Умеренно" d4 d2 | B2 [Bd]>[Bd] [Bd]2- | [Bd]d Bd ed | %51
 B2 d4 | G4 G2 | c>c B2 AG | %54
"^ве – чны –я            бу   –   дем.                                                                                             Ал            –            ли      –     лу     –    и     –      а.""^vye–chnyi–ya          bu  –  dyem.                                                                                            Al             –             li        –     lu      –    i      –      a." c2 B2 AG | %55
 A4 A2 | z6 | z6 |!f! (d2 eg) fe | d2 eB ^c2 | %60
"^Ал       –         ли    –    лу          –         –         –         –         и   –      а.   Ал–ли –  лу     –     и  –  а.    Ал – ли – лу    –     и    –   а. __________""^Al        –          li     –     lu          –         –         –         –          i     –     a.    Al – li  –   lu     –      i   –  a.     Al  –  li  –  lu    –      i     –   a. __________" (dA B2) cB | %61
 (AB c2 BG | A4) F2 | G2!f! d2 B2 | c4 A2 | B2 B2 G2 | A4 F2 | G6- | %68
 G2"^Ал–ли – лу         –            и           –          а.   Ал–ли  –  лу        –       и           –           а. __________________________________""^Аl – li   –  lu          –            i            –          а.    Аl –li    –   lu         –       i            –           а. __________________________________" A2 B2 | %69
!>(! (c4 A2)!>)! | F6 |"^Slowing"[Q:1/4=70]!p!"^Удерживая" G2 G2 D2 |!<(! E6!<)! |[Q:1/4=60] A6 | %74
[Q:1/4=50]!>(! D6-!>)! |[Q:1/4=40] D6- | D6- | D2 z2 !fermata!z2 |] %78
V:2
 x6 | B2 BB B2- | B2 B2 cB | B2 B4 | x6 | x6 | x6 | x6 | x6 | x6 | x6 | x6 | x6 | x6 | x6 | x6 || %16
 x6 | x6 | x2 B2 cB | B2 B4 | x6 | x6 | x6 | x6 | x6 | x6 | x6 | x6 | x6 | x6 | x6 | x6 || x6 | %33
 x6 | x2 B2 cB | B2 B4 | x6 | x6 | x6 | x6 | x6 | x6 | x6 | x6 | x6 | x6 | x6 | x6 || x6 | x6 | %50
 x B B2 cB | B2 B4 | x6 | x6 | x6 | x6 | x6 | x6 | x6 | x6 | x6 | x6 | x6 | x6 | x6 | x6 | x6 | %67
 x6 | x6 | x6 | x6 | x6 | x6 | x6 | x6 | x6 | x6 | x6 |] %78
V:3
!pp!"^Ны –не  си –лы  не–бе       –        сны – я        с нам–ы        не          –       ви–ди–мо,   не   –     ви–ди – мо        слу–жат.""^Nyi–nye ci – lyi  nye–be      –        snyi–ya      s  nam–yi       nye       –        vi– di – mo,  nye  –    vi – di –  mo       slu–zhat." B4 A2 | %1
!<(! G2 FF F2-!<)! | F2 GF EF |!mp! G2 F4 |!p!!<(! (E4 D2)!<)! | GG!>(! G2 G2!>)! | F2 G2 FE | %7
!<(! F4 F2!<)! | %8
!mp!"^Ны        –       не           си    –    лы         не     –      бе    –     сны   –    я             с нам   –   ы                   не    –       ви    –     ди    –   мо""^Nyi       –       nye          ci     –     lyi         nye    –     be    –    snyi   –    ya          s  nam   –  yi                  nye     –     vi     –     di     –   mo" (D2 EG) FE | %9
!<(! D2 E2 FG!<)! |!mf! AF GB A2 | F2 GA G2 | E2 D2 G2 | %13
"^слу          –           –           –         –         –         –     жат.           Се      бо       вхо – дит  Царь          сла     –         –            вы,         Се            бо""^slu           –           –           –         –         –         –     zhat.         Sye     bo     vkxo – dit    Tsar'           sla       –         –            vui,       Sye           bo"!>(! (GD F2 D^C!>)! | %14
!p! D6) | !fermata!D6 ||!pp!!<(! B4 A2!<)! | G3 F F2- | F2 (GFEF | G2)!mp! F4 |!p!!<(! E4 D2!<)! | %21
"^вхо–дит Царь _______    сла      –         –         –          –        вы,      Се ________  бо           вхо  –  дит       Царь       сла         –          вы.""^vkho–dit  Tsar' ________    sla       –         –         –          –        vyi,     Sye ________ bo          vkho –  dit        Tsar'         sla          –          vyi." GG!>(! G4!>)! | %22
 (F2 G2 FE | F4) F2 |!mp! (D2 EG) FE |!<(! D2 E2 FG!<)! |!mf! AFGB A2 | %27
"^Се ___________    бо            вхо        –        дит            Царь ___      сла     –         –         –          –        вы,           Се жерт-ва   тай– на–я""^Sye __________     bo         vkho       –         dit             Tsar'  ____     sla       –         –         –         –        vyi,          Sye zhert-va  tai – na–ya" (F2 GA) G2 | %28
 (E2 D2) G2 |!>(! (GD F2) (D^C!>)! |!p! D6) | !fermata!D6 ||!pp! B2!<(! B2 A2!<)! | G3 F F2- | %34
 F2 GF EF | G2!mp! F4 |!p!!<(! E4 D2!<)! | GG!>(! G2 GG!>)! | (F2 G2) FE | F6 | %40
!mp!"^Се      жерт–ва""^Sye  zhert – va" D2 EG FE | %41
"^тай        –         на    –     я,           жерт  – ва             тай         –         –         на       –       я           со    –    вер     –    ше   –   на        до       ри –""^tai         –          na   –     ya,         zhert  – va              tai          –          –         na      –       ya          so   –    ver      –    she  –   na         do       ri  –"!<(! (D2 E2) FG!<)! | %42
!mf! AF GB A2 | (F2 GA) G2 | E2 D2 G2 |!>(! GD F2 D^C!>)! |!p! D4 D2 | !fermata!D6 || %48
 z2!f! [GB]2 [DA]2 | [EG]2 F>F F2- | FF GF GF | G2 F4 | z2 E2 D2 | G>G G2 ED | %54
"^ве – чны –я            бу   –   дем.   Ал       –          ли    –    лу            –           и      –       а.            Ал    –    ли     –      лу    –    и      –      а.""^vye–chnyi–ya          bu  –  dyem.  Al         –          li      –     lu             –           i       –       a.             Al     –     li       –      lu      –    i      –      a." F2 G2 FE | %55
 F4 F2 |!f! (D2 EG) FE | (D2 E2) FG | AF GB A2 | F2 E2 E2 | %60
"^Ал       –         ли    –    лу                                 –   и               –            а.   Ал–ли –  лу     –     и  –  а.    Ал – ли – лу    –     и    –   а. __________""^Аl         –          li      –    lu        –         –         –      i                –            a.    Al – li   –  lu      –     i   –  a.     Al  –  li  –  lu     –      i    –    a. _________" D4 CD | %61
 (E4 DB,) | (E4 D2) | D2!f! G2 G2 | G4 E2 | D2 D2 E2 | (E2 C2) C2 | D6- | D2 A2 G2 | %69
!>(! (G4 E2)!>)! | (E2 D2 C2) |!p! D2 D2 B,2 |!<(! C6!<)! | C6 |!>(! (C6-!>)! | C2 B,2 A,2) | %76
 B,6- | B,2 z2 !fermata!z2 |] %78
V:4
 x6 | x6 | x6 | x6 | x6 | x6 | x6 | x6 | x6 | x6 | x6 | x6 | x6 | x6 | x6 | x6 || x6 | x6 | x6 | %19
 x6 | x6 | x6 | x6 | x6 | x6 | x6 | x6 | x6 | x6 | x6 | x6 | x6 || x6 | x6 | x6 | x6 | x6 | x6 | %38
 x6 | x6 | x6 | x6 | x6 | x6 | x6 | x6 | x6 | x6 || x6 | x2 F>F F2- | FF EF GF | E2 F4 | x6 | x6 | %54
 x6 | x6 | x6 | x6 | x6 | x6 | x6 | x6 | x6 | x6 | x6 | x6 | x6 | x6 | x6 | x6 | x6 | x6 | x6 | %73
 x6 | x6 | x6 | x6 | x6 |] %78
V:5
!pp! a4 f2 |!<(! e2 dd d2-!<)! | d2 ef gf |!mp! e2 d4 | %4
!p!"^не          –       ви–ди–мо,   не   –     ви–ди – мо        слу–жат.""^nye        –        vi– di– mo,  nye  –     vi– di –  mo       slu–zhat."!<(! (c4 B2)!<)! | %5
 cc!>(! d2 ed!>)! | c2 d2 dB |!<(! d4 d2!<)! | %8
 z2!mp!"^Ны   –   не          си    –    лы          не     –      бе   –     сны   –    я             с нам   –   ы                   не      –      ви       –           –          –""^Nyi  –   nye        ci     –     lyi           nye    –     be    –    snyi   –   ya           s nam  –   yi                  nye     –      vi        –           –          –" G2 A2 | %9
!<(! Bd cB AG!<)! |!mf! FA B^c dc | B2 Bd/^c/ B2 | (A4!<(! B^c!<)! | %13
 e)"^–ди–мо    слу     –     жат.""^– di–mo    slu      –    zhat."!>(!f d2 (Be!>)! |!p! A6) | %15
 !fermata!A6 ||!pp!!<(! g4 f2!<)! | e3 d d2- | d2 (e[df][cg][df] | e2)!mp! d4 |!p!!<(! c4 B2!<)! | %21
"^вхо–дит Царь _______    сла      –         –         –          –        вы,                Се        бо           вхо  –  дит       Царь       сла       –         –         –""^vkho–dit  Tsar' ________    sla       –         –         –          –        vyi,               Sye       bo          vkho –  dit        Tsar'         sla        –         –         –" cc!>(! (d2 ed)!>)! | %22
 (c2 d2 dB | d4) d2 | z2!mp! G2 A2 |!<(! Bd cB AG!<)! |!mf! FAB^cdc | %27
"^–вы,       Се ______  бо           вхо  –  дит     Царь       сла –  вы,     Царь        сла         –         –          вы.          Се жерт-ва   тай – на–я""^–vyi,     Sye ______  bo         vkho –   dit       Tsar'        sla  –  vyi,    Tsar'          sla          –         –          vyi,          Sye zhert-va  tai – na–ya" B2 Bd/^c/ B2 | %28
 A2 A2!<(! B^c!<)! | ef!>(! d2 Be!>)! |!p! A6 | !fermata!A6 ||!pp! g2!<(! g2 f2!<)! | e3 d d2- | %34
 d2"^со   –   вер  –  ше–на            до           ри – но–сит–ся,         до   ри – но          –           сит    –     ся.""^so   –  vyer  – she–na            do          ri  – no – sit – sya,        do  ri  –   no          –           sit      –     sya." e[df] [cg][df] | %35
 e2!mp! d4 |!p!!<(! c4 B2!<)! | cc!>(! d2 ed!>)! | (c2 d2) dB | d6 | z2!mp!"^Се""^Sye" (G2 A2) | %41
"^жерт       –      ва            тай  –  на    –     я,              до   ри– но      –       сит       –      ся,          до        ри      –      но         –         –         –""^zhert       –      va             tai   –   na    –    ya,            do    ri –  no      –        sit        –     sya         do         ri        –      no         –         –         –"!<(! BdcB AG!<)! | %42
!mf! FA B^c dc | BB Bd/^c/ B2 | A2 A2!<(! B^c!<)! | (ef!>(! d2 Be!>)! | %46
!p! A4)"^–сит   –  ся. _______  Ве–ро – ю     и   лю–бо     –      ви – ю        при –  сту-пим,       да  при–част-ни-цы  жи–зни""^–sit    –  sya. ______  Vye–ro –yu     i   lyu –bo     –      vi – yu         pri    –  stu–pim,    da      pri –chast-ni-tsyi  zhi–zni" A2 | %47
 !fermata!A6 || z2!f! [Gd]2 [Ad]2 | B2 d>d d2- | dd Bd ed | B2 d4 | z2 c2 B2 | c>c d2 cd | %54
"^ве – чны –я            бу   –   дем.              Ал   –   ли    –    лу            –           и      –       а.            Ал    –    ли     –      лу    –    и      –      а.""^vye–chnyi–ya          bu  –  dyem.              Al   –     li      –    lu             –           i       –       a.             Al     –     li       –      lu      –    i      –      a." c2 d2 dB | %55
 d4 d2 | z2!f! G2 A2 | BdcB AG | FA B^c dc | B2 B2 A2 | %60
"^Ал       –         ли    –    лу    –       и –  а.           Ал      –     ли  –   лу– и – а.       Ал    –    ли –  лу– и – а.       Ал    –     ли  –  лу     –       –""^Аl       –           li     –     lu     –       i  –  а.            Al       –      li   –    lu – i  – а.        Al     –     li  –   lu – i  – а.        Al    –       li   –   lu      –       –" (A2 G2) G2 | %61
 G3 F fe | (A2 c2) BA | B2!f! B2 d2 | (e2 A2) c2 | d2 G2 B2 | (c2 E2) A2 | B6- | %68
 B2"^– i –  а.      Al    –     li   –    lu    –     i    –   а.    Al –  li –  lu   –   i    –   а.    Al – li  –  lu       –       i              –            a. __________""^–и – а.      Ал   –    ли  –  лу   –     и   –   а.    Ал– ли– лу  –   и   –  а.    Ал–ли–  лу      –      и              –           a. __________" c2 d2 | %69
!>(! c4 c2!>)! | (A2 B2) c2 |!p! B2 B2 G2 |!<(! G4 F2!<)! | E2 E2 F2 |!>(! G6!>)! | G6 | G6- | %77
 G2 z2 !fermata!z2 |] %78
V:6
 x6 | x6 | x2 ed cd | e2 d4 | x6 | x6 | x6 | x6 | x6 | x6 | x6 | x6 | x6 | x6 | x6 | x6 || x6 | %17
 x6 | x6 | x6 | x6 | x6 | x6 | x6 | x6 | x6 | x6 | x6 | x6 | x6 | x6 | x6 || x6 | x6 | x6 | x6 | %36
 x6 | x6 | x6 | x6 | x6 | x6 | x6 | x6 | x6 | x6 | x6 | x6 || x6 | B2 B>B B2- | BB GB cB | G2 B4 | %52
 x6 | x6 | x6 | x6 | x6 | x6 | x6 | x6 | x6 | x6 | x6 | x6 | x6 | x6 | x6 | x6 | x6 | x6 | x6 | %71
 x6 | x6 | x6 | x6 | x6 | x6 | x6 |] %78
V:7
 z6 | z6 | z6 | z6 | %4
 z2!p!"^Ны–не    си   –    лы      не   –    бе–сны–я        с нам–ы""^Nyi–nye  ci    –    lyi       nye  –   be–snyi–ya     s nam–yi"!<(! C,2 D,2!<)! | %5
 E,2!>(! D,2 C,B,,!>)! | A,,2 G,,2 D,E, |!<(! D,4 D,2!<)! | z6 | z6 | %10
 z2!mf!"^Ны    –     не              си   –        лы              не       –      бе   –   сны    –    я""^Nyi    –     nye            ci     –       lyi               nye    –      be   –   snyi    –   ya" [E,,E,]2 [F,,F,][A,,A,] | %11
 [B,,B,][A,,A,] G,D, E,G, | A,G, F,2 E,2 | %13
"^s nam  –  yi   slu        –        –     zhat.""^с нам  –   ы   слу       –        –      жат."!>(! [D,A,]3 [D,A,] (([D,A,]2-!>)! | %14
 [D,A,][D,,D,]))!p! [D,,D,]4- | !fermata![D,,D,]6 || z6 | z6 | z6 | z6 | %20
 z2!p!"^Sye bo""^Се  бо"!<(! C,2 D,2!<)! | %21
"^вхо          –         дит,       вхо–дит  Царь ____      сла  –   вы,""^vkho       –           dit,     vkho–dit    Tsar'  ____       sla   –   vyi," (E,2!>(! D,2) C,B,,!>)! | %22
 A,,A,, (G,,2 D,E,) | D,4 D,2 | z6 | z6 | %26
 z2!mf!"^Sye          bo""^Се            бо" [E,,E,]2 [F,,F,][A,,A,] | %27
"^вхо –  дит            Царь       сла        –       вы,             вхо  –  дит  Царь""^vkho– dit              Tsar'        sla         –       vyi,            vkho–  dir    Tsar'" [B,,B,][A,,A,] G,D, E,G, | %28
 ((A,G, F,2)) E,2 |!>(! [D,A,]3 [D,A,] [D,A,]2!>)! | %30
!p!"^сла  –  вы. ____________""^sla   –  vyi. ____________" A,D, D,4- | !fermata!D,6 || z6 | z6 | %34
 z6 | z6 | %36
 z2!p!"^Sye            zhert         –         va               tai – na–ya    so – ver –she –  na.""^Се              жерт         –         ва              тай– на–я     со – вер–ше  –  на."!<(! (C,2 D,2)!<)! | %37
 (E,2!>(! D,2) C,B,,!>)! | A,,A,, G,,2 D,E, | D,4 D,2 | z6 | z6 | %42
 z2!mf!"^Се                          жерт–ва  тай      –       на      –      я            со    –   вер     –     ше      –      на   до _______""^Sye                        zhert –va  tai       –        na     –      ya,          so   –   ver      –     she      –      na  do _______" ([E,,E,]2 [F,,F,][A,,A,]) | %43
 [B,,B,][A,,A,] G,D, E,G, | A,G, F,2 E,2 |!>(! [D,A,]3 [D,A,] [D,A,]2-!>)! | %46
 [D,A,]!p!"^ри –  но  –   сит – ся.""^ri    –  no  –    sit  –sya."[D,,D,] [D,,D,]3 [D,,D,] | %47
 !fermata![D,,D,]6 || z2!f! [G,B,]2 [F,A,]2 | [E,G,]2 [D,F,]>[D,F,] (([D,F,]2 | %50
 [D,F,]))[D,F,] [E,G,][D,F,] [C,E,][D,F,] | [E,G,]2 [D,F,]4 | z2 [C,G,]2 [D,G,]2 | %53
 [E,G,]>[E,G,] G,2 A,B, | %54
"^ве – чны –я            бу   –   дем.""^vye–chnyi–ya          bu  –  dyem." A,2 G,2 D,E, | %55
 D,4 D,2 | z6 | z6 | %58
 z2!f!"^Al     –    li        –      lu               –            i      –""^Ал    –    ли     –      лу              –            и     –" [E,,E,]2 [F,,F,][A,,A,] | %59
 ([B,,B,][A,,A,] [G,,G,]2) [A,,A,][G,,G,] | %60
"^– а.        Al  –    li    –     lu           –          i       –    а.      Al –  li    –    lu      –         –          –         –       i        –         –         –         –          а.   Al – li   –""^– а.       Ал  –  ли  –     лу          –          и      –    а.     Ал –ли   –   лу      –         –          –         –      и        –         –         –         –         а.  Ал–ли –" [F,,F,]2 [G,,G,][F,,F,] [E,,E,][G,,D,] | %61
 (C,B,, A,,2) B,,E, | C,2 A,,2 D,2 |!f! G,,6- | G,,6 | G,,6- | G,,6 | G,,2!f! G,2 D,2 | %68
"^–  lu   –    i  –    а.    Al  – li  –  lu     –      i    –   а.                       Al       –        li           –           lu      –       i            –              а.""^– лу   –   и  –   а.    Ал –ли – лу    –     и   –   а.                       Ал      –       ли         –          лу      –      и           –              а." =F,4 F,2 | %69
!>(! E,2 E,2 A,,2!>)! | (C,2 B,,2) A,,2 |!p! G,,6 |!<(! G,,6!<)! | G,,6 |!>(! G,,6!>)! | G,,6 | %76
 G,,6- | G,,2 z2 !fermata!z2 |] %78
V:8
 x6 | x6 | x6 | x6 | x6 | x6 | x6 | x6 | x6 | x6 | x6 | x2 G,,D, E,G, | x6 | x6 | x6 | x6 || x6 | %17
 x6 | x6 | x6 | x6 | x6 | x6 | x6 | x6 | x6 | x6 | x2 G,,D, E,G, | A,G, F,2 E,2 | x6 | %30
 D,D,, D,,4- | D,,6 || x6 | x6 | x6 | x6 | x6 | x6 | x6 | x6 | x6 | x6 | x6 | x2 G,,D, E,G, | %44
 A,G, F,2 E,2 | x6 | x6 | x6 || x6 | x6 | x6 | x6 | x6 | x6 | x6 | x6 | x6 | x6 | x6 | x6 | x6 | %61
 x6 | x6 | x6 | x6 | x6 | x6 | x6 | x6 | x6 | x6 | x6 | x6 | x6 | x6 | x6 | x6 | x6 |] %78

